X:1
T:A Natural Woman
T:A Natural Woman
C:Jerry Wexler
Z:All Rights Reserved
L:1/8
M:3/4
K:A
V:1 treble nm="Piano" snm="Pno."
%%MIDI program 0
V:1
"A" z6 | EC E2 EC |"E" EF (C2 B,2) | z6 |"G" z3/2 B,/ DB, D2 | z2 (E>D) E2 |"D" (D2 A,2) z2 | %7
w: |Look- in' out on the|morn- in' rain, _||I used to feel|un- * in-|spired. _|
w: |||||||
"D""A""Bm7" z6 |"A" z2 z C EF | A>E FE F2 |"E" z C EF (CB,) | z6 |"G" z2 D2- D>B, | D>B, E2 E2 | %14
w: |And when I|knew I had to face|an- oth- er day, _||Lord, _ it|made me feel so|
w: |||||||
"D" (D2 A,2) z2 |"A" z6 |"Bm7" z3/2 C/ E>C E>C |"C#m7" EF- F2 z2 |"Bm7" z2 E>C E>C |"C#m7" F4 z2 | %20
w: tired. _||Be- fore the day I|met you, _|life was so un-|kind.|
w: ||||||
"Bm7" E2 E2 E>C |"C#m7" F>E (F>E) F>E |"Dmaj7" (A>E F2- F>)E ||S"Bm7" c2 B2 (A>B) | %24
w: You love was the|key to my _ peace of|mind, _ _ _ 'cause|you make me _|
w: ||||
"A" (A/F/E- E2) z2 |"D" c2 B2 (A>B) |"A" (A/F/E- E2) z2 |"D" c2 B2 (A>B) |"A" A2"D" F2"A" (E>F) | %29
w: feel, _ _ _|you make me _|feel, _ _ _|you make me _|feel like a _|
w: |||||
"A" C2"D" B,2"A" A,2 |"Bm7" CB,- B,2 z2 | z6!dacoda! ||"A" z4 EC | E3 C EC |"E" EF (C2 B,2) | z6 | %36
w: nat- u- ral|wo- man. _||When my|soul was in the|lost and found, _||
w: |||||||
"G" z2 D2 DB, | D4- DE |"D" D2 A,2 z2 |"A""Bm7" z6 |"A" z2 z C EF | A>E FC E2 |"E" z A (C B,3) | %43
w: you came a-|long _ to|claim it.||i did- n't|know just what was wrong|with me, _|
w: |||||||
 z6 |"G" z2 D2 D2 | D2 E2 D2 |"D" D2 A,2 z2 |"A" z6 |"Bm7" z3/2 C/ E>C E>C |"C#m7" EF- F4 | %50
w: |till your|kiss helped me|name it.||Now I'm no lon- ger|doubt- ful _|
w: |||||||
"Bm7" z3/2 C/ E>C E>C |"C#m7" F4 z3/2 C/ |"Bm7" E>C E>C E>C |"C#m7" F>E F>E (F>E) | %54
w: of what I'm liv- in'|for, 'cause|if I make you hap- py|I don't need to do _|
w: ||||
"Dmaj7" (A/E/F- F4)!D.S.! ||O"A" z6 | A>E F>E F>E |"G" =G>F (E>F) F>E | =G>F (E2"D" F2) | %59
w: more. _ _ _||Oh, _ ba- by, what you've|done to me! _ (What you've|done to me!) _|
w: |||||
"A" z2 (A>E) F>E | (F>E) (F>E) =G2- |"G" GE E4 | =G>F (E>F) z2 |"Dmaj7" z6 | F A3 (B>A) | %65
w: You _ make me|feel _ so _ good|_ in- side.|(Good in- side). *||And I just _|
w: ||||||
"Am7" =c>B (A>B) z2 | =c>B (A>B) z2 |"D" z2 A>F A>F |"A" A>F (((e=c)) B)A/F/ |"Bm7" (BA F2) z c- | %70
w: want to be _|(want to be) _|close to you. You|make me feel _ _ so _|live! _ _ You|
w: |||||
 c2 A2 B2 |:"A" (A/F/E- E2) z2 |"Dmaj7" c2 B2 (A>B) |"A" (A/F/E- E2) z2 |"Dmaj7" c2 B2 (A>B) | %75
w: _ make me|feel _ _ _|you make me _|feel _ _ _|You make me _|
w: |||||
"A" A2"D" F2"A" (E>F) |"A" C2"D6" B,2"A6" A,2 |"Bm7" C2 E2 E2 |"Bm7" EF z3/2 E/ F>E | %79
w: feel like a _|nat- u- ral|nat- u- ral|wo- man. You make me|
w: ||||
"A" A/F/E- E2 z2 |"D" c2 B2 (A>B) |"A" (A/F/E- E2) z2 |"D" c2 B2 (A>B) |"A" A2"D" F2"A" E>F | %84
w: feel, _ _ _|You make me _|feel, _ _ _|You make me _|feel like a _|
w: |||||
"A" C2"D" B,2"A" A,2 |"Bm7" C2 E2 E2 |1 EF z3/2 E/ F>E :|2"Bm7" C B,2 z2 E, |"Bm7" F,2 A,2 (B,A,) | %89
w: nat- u- ral|nat- u- ral|wo- man. You make me|wo- man *|nat- u- ral *|
w: |||* * a||
"A" C(B, A,2) z2 ||"D""A""Bm7" z6 |"A" z6 |] %92
w: wo- man. _|||
w: |||

